X:124
T:A Grand Dance
M:C|
L:1/8
S:Edward Winder MS,1834,Wyresdale,Lancashire.
S:Chris Partington <ChrisTheFiddlerPartington:Hotmail.com> tradtunes 2009-1-28
Z:Chris Pollington's CD of the Edward Winder MS, 1834, Lancashire.
Q:1/4=140
Z:Chris Pollington 2008
K:G
B2 d4 ef|g2 d4 ef|g2 d4 c2|B3-B/4 G3-G/4|!
c2 e4 dc|B2 d4 cB|A2 G2 AB cA|B3-B/4 G3-G/|]
